X: 2
T: Blind Mary
R: polka
M: 2/4
L: 1/8
K: Dmaj
A|d2 d>c|{c}B2 A(F/G/)|A>B AF|E3 (FG)|(Af) (f>e)|(dB) A(D/E/)|(F>G) ({F}E>D)|D3||(d/e/)|f>g fB|e>c (AB/c/)|d>D D(E/F/)|E3 (A/G/)| (F>G) Ad|f>e d(D/E/)|(F>G) ({F}E>D)|D3||


Tune 1382	Setting 1382

